projects/samara/images/icons/tooltip.svg

<svg width="18" height="18" viewBox="0 0 18 18" fill="none" xmlns="http://www.w3.org/2000/svg">
<path d="M8.99996 13.1667C9.23607 13.1667 9.43413 13.0867 9.59413 12.9267C9.75413 12.7667 9.83385 12.569 9.83329 12.3334V9.00008C9.83329 8.76397 9.75329 8.56591 9.59329 8.40591C9.43329 8.24591 9.23551 8.16619 8.99996 8.16675C8.76385 8.16675 8.56579 8.24675 8.40579 8.40675C8.24579 8.56675 8.16607 8.76453 8.16663 9.00008V12.3334C8.16663 12.5695 8.24663 12.7676 8.40663 12.9276C8.56663 13.0876 8.7644 13.1673 8.99996 13.1667ZM8.99996 6.50008C9.23607 6.50008 9.43413 6.42008 9.59413 6.26008C9.75413 6.10008 9.83385 5.9023 9.83329 5.66675C9.83329 5.43064 9.75329 5.23258 9.59329 5.07258C9.43329 4.91258 9.23551 4.83286 8.99996 4.83341C8.76385 4.83341 8.56579 4.91341 8.40579 5.07341C8.24579 5.23341 8.16607 5.43119 8.16663 5.66675C8.16663 5.90286 8.24663 6.10091 8.40663 6.26091C8.56663 6.42091 8.7644 6.50064 8.99996 6.50008ZM8.99996 17.3334C7.84718 17.3334 6.76385 17.1145 5.74996 16.6767C4.73607 16.239 3.85413 15.6454 3.10413 14.8959C2.35413 14.1459 1.76051 13.264 1.32329 12.2501C0.886071 11.2362 0.667182 10.1529 0.666626 9.00008C0.666626 7.8473 0.885515 6.76397 1.32329 5.75008C1.76107 4.73619 2.35468 3.85425 3.10413 3.10425C3.85413 2.35425 4.73607 1.76064 5.74996 1.32341C6.76385 0.886193 7.84718 0.667304 8.99996 0.666748C10.1527 0.666748 11.2361 0.885637 12.25 1.32341C13.2638 1.76119 14.1458 2.3548 14.8958 3.10425C15.6458 3.85425 16.2397 4.73619 16.6775 5.75008C17.1152 6.76397 17.3338 7.8473 17.3333 9.00008C17.3333 10.1529 17.1144 11.2362 16.6766 12.2501C16.2388 13.264 15.6452 14.1459 14.8958 14.8959C14.1458 15.6459 13.2638 16.2398 12.25 16.6776C11.2361 17.1154 10.1527 17.334 8.99996 17.3334ZM8.99996 15.6667C10.8611 15.6667 12.4375 15.0209 13.7291 13.7292C15.0208 12.4376 15.6666 10.8612 15.6666 9.00008C15.6666 7.13897 15.0208 5.56258 13.7291 4.27091C12.4375 2.97925 10.8611 2.33341 8.99996 2.33341C7.13885 2.33341 5.56246 2.97925 4.27079 4.27091C2.97913 5.56258 2.33329 7.13897 2.33329 9.00008C2.33329 10.8612 2.97913 12.4376 4.27079 13.7292C5.56246 15.0209 7.13885 15.6667 8.99996 15.6667Z" fill="#667085"/>
</svg>

<svg width="18" height="18" fill="none" xmlns="http://www.w3.org/2000/svg"><path d="M9 13.167c.236 0 .434-.08.594-.24.16-.16.24-.358.24-.594V9a.807.807 0 00-.24-.594.803.803 0 00-.594-.24.807.807 0 00-.594.24.803.803 0 00-.24.594v3.333c0 .236.08.435.24.595.16.16.358.24.594.239zM9 6.5c.236 0 .434-.08.594-.24.16-.16.24-.358.24-.593a.807.807 0 00-.24-.594.803.803 0 00-.594-.24.807.807 0 00-.594.24.803.803 0 00-.24.594c0 .236.08.434.24.594.16.16.358.24.594.24zm0 10.833a8.11 8.11 0 01-3.25-.656 8.426 8.426 0 01-2.646-1.781 8.41 8.41 0 01-1.78-2.646A8.13 8.13 0 01.666 9a8.11 8.11 0 01.656-3.25 8.428 8.428 0 011.781-2.646 8.41 8.41 0 012.646-1.78A8.13 8.13 0 019 .666a8.11 8.11 0 013.25.656 8.43 8.43 0 012.646 1.781 8.422 8.422 0 011.781 2.646A8.102 8.102 0 0117.333 9a8.11 8.11 0 01-.656 3.25 8.43 8.43 0 01-1.781 2.646 8.423 8.423 0 01-2.646 1.782 8.1 8.1 0 01-3.25.655zm0-1.666c1.861 0 3.438-.646 4.73-1.938 1.29-1.291 1.937-2.868 1.937-4.729 0-1.861-.646-3.437-1.938-4.73C12.438 2.98 10.861 2.334 9 2.334c-1.861 0-3.438.646-4.73 1.938C2.98 5.563 2.334 7.139 2.334 9c0 1.86.646 3.437 1.938 4.728 1.29 1.293 2.867 1.939 4.728 1.939z" fill="#667085"/></svg>
